!!!COM: Beethoven
!!!OTL: 13 Variationen uber "Es war einmal ein alter Mann" aus "Das rote Kappchen" von K. Ditters von Dittersdorf
!!!Variation: Variation 11 e
**function	**harm	**kern	**kern
*	*	*clefF4	*clefG2
*	*	*k[f#c#g#]	*k[f#c#g#]
*M6/8	*M6/8	*M6/8	*M6/8
*A:	*A:	*A:	*A:
8T	8V	8EE'	8r
=437	=437	=437	=437
2.T	2.I	8AA'L	16eeLL
.	.	.	16e
.	.	8EE'	16f#
.	.	.	16e
.	.	(8BBJ	16f#
.	.	.	16eJJ
.	.	8C#'L)	16eeLL
.	.	.	16e
.	.	8AA'	16f#
.	.	.	16e
.	.	(8DJ	16f#
.	.	.	16eJJ
=438	=438	=438	=438
2.T	2.Vc	8E'L)	16eeLL
.	.	.	16e
.	.	8BB'	16f#
.	.	.	16e
.	.	(8F#J	16f#
.	.	.	16eJJ
.	.	8E'L)	16g#LL
.	.	.	16e
.	.	8BB'	16f#
.	.	.	16e
.	.	(8DJ	16f#
.	.	.	16eJJ
=439	=439	=439	=439
2.T	2.I	8C#'L)	16aLL
.	.	.	16e
.	.	8AA'	16f#
.	.	.	16e
.	.	(8BBJ	16f#
.	.	.	16eJJ
.	.	8C#'L)	16eeLL
.	.	.	16e
.	.	8AA'	16f#
.	.	.	16e
.	.	(8DJ	16f#
.	.	.	16eJJ
=440	=440	=440	=440
2.T	2.Vc	8E'L)	16eeLL
.	.	.	16e
.	.	8BB'	16f#
.	.	.	16e
.	.	(8F#J	16f#
.	.	.	16eJJ
.	.	8E'L)	16g#LL
.	.	.	16e
.	.	8BB'	16f#
.	.	.	16e
.	.	(8DJ	16f#
.	.	.	16eJJ
=441	=441	=441	=441
4.T	4.I	8C#'L)	16aLL
.	.	.	16e
.	.	8AA'	16f#
.	.	.	16e
.	.	(8C#J	16f#
.	.	.	16eJJ
4.D	4.V7	8BB'L)	16g#LL
.	.	.	16d
.	.	8EE'	16e
.	.	.	16d
.	.	8BBJ	16e
.	.	.	16dJJ
=442	=442	=442	=442
2T	2I	8AA'L	4c# 4a
.	.	(8A	.
.	.	8F#J	8r
.	.	8E'L)	8r
4T	4IV	(8F#	(8aL
.	.	8DJ	8f#J)
=443	=443	=443	=443
4.T	4.I	8C#'L)	16ALL
.	.	.	16e
.	.	8AA'	16A
.	.	.	16e
.	.	(8C#J	16A
.	.	.	16eJJ
4.T	4.V7	8BB'L)	16dLL 16g#
.	.	.	16e
.	.	8EE'	16d 16g#
.	.	.	16e
.	.	(8BBJ	16d 16g#
.	.	.	16eJJ
=444	=444	=444	=444
2T	2I	8AA'L)	4c# 4a
.	.	(8A	.
.	.	8F#J	8r
.	.	8E'L)	8r
4T	4IV	(8F#	(8aL
.	.	8DJ	8f#J)
=445	=445	=445	=445
4.T	4.I	8C#'L)	16ALL
.	.	.	16e
.	.	8AA'	16A
.	.	.	16e
.	.	(8C#J	16A
.	.	.	16eJJ
4.T	4.V7	8BB'L)	16dLL 16g#
.	.	.	16e
.	.	8EE'	16d 16g#
.	.	.	16e
.	.	(8BBJ	16d 16g#
.	.	.	16eJJ
=446	=446	=446	=446
2.T	2.I	8AA'L)	4c# 4a
.	.	8EE'	.
.	.	8CC#'J	8r
.	.	4AAA	4r
.	.	8r	8r
*-	*-	*-	*-
